**harm	**harte	**timestamp	**phrase	**leadinstrument	**kern
*M4/4	*M4/4	*	*	*	*
*D:	*D:	*	*	*	*D:
1r;	N	0	.	r	1r;
=1	=1	=1	=1	=1	=1
*>A_intro	*>A_intro	*>A_intro	*>A_intro	*>A_intro	*>A_intro
1I	D:maj	0.987	newline	guitar	1D 1f# 1a
=2	=2	=2	=2	=2	=2
1I	D:maj	2.877	.	guitar	1D 1f# 1a
=3	=3	=3	=3	=3	=3
1I	D:maj	4.767	.	guitar	1D 1f# 1a
=4	=4	=4	=4	=4	=4
1I	D:maj	6.657	.	guitar	1D 1f# 1a
=5	=5	=5	=5	=5	=5
*>B_verse	*>B_verse	*>B_verse	*>B_verse	*>B_verse	*>B_verse
1I	D:maj	8.547	newline	voice	1D 1f# 1a
=6	=6	=6	=6	=6	=6
1I	D:maj	10.462	.	voice	1D 1f# 1a
=7	=7	=7	=7	=7	=7
1ii	E:min	12.377	.	voice	1E 1g 1b
=8	=8	=8	=8	=8	=8
2iioD7	E:dim7	14.292	.	voice	2E 2g 2b- 2dd-
2ivoD7	G:dim7	15.25	.	voice	2G 2b- 2dd- 2ff-
=9	=9	=9	=9	=9	=9
2I	D:maj	16.208	newline	voice	2D 2f# 2a
2iii	F#:min	17.17	.	voice	2F# 2a 2cc#
=10	=10	=10	=10	=10	=10
2ii	E:min	18.133	.	voice	2E 2g 2b
2iv	G:min	19.095	.	voice	2G 2b- 2dd
=11	=11	=11	=11	=11	=11
2I	D:maj	20.058	.	voice	2D 2f# 2a
2VI	B:maj	21.02	.	voice	2B 2dd# 2ff#
=12	=12	=12	=12	=12	=12
1ii	E:min	21.983	.	voice	1E 1g 1b
=13	=13	=13	=13	=13	=13
1I	D:maj	23.908	newline	voice	1D 1f# 1a
=14	=14	=14	=14	=14	=14
1I	D:maj	25.814	.	voice	1D 1f# 1a
=15	=15	=15	=15	=15	=15
1ii	E:min	27.72	.	voice	1E 1g 1b
=16	=16	=16	=16	=16	=16
2iioD7	E:dim7	29.626	.	voice	2E 2g 2b- 2dd-
2ivoD7	G:dim7	30.58	.	voice	2G 2b- 2dd- 2ff-
=17	=17	=17	=17	=17	=17
2I	D:maj	31.533	newline	voice	2D 2f# 2a
2iii	F#:min	32.495	.	voice	2F# 2a 2cc#
=18	=18	=18	=18	=18	=18
2ii	E:min	33.457	.	voice	2E 2g 2b
2iv	G:min	34.42	.	voice	2G 2b- 2dd
=19	=19	=19	=19	=19	=19
2I	D:maj	35.382	.	voice	2D 2f# 2a
2VI	B:maj	36.345	.	voice	2B 2dd# 2ff#
=20	=20	=20	=20	=20	=20
1ii	E:min	37.307	.	voice	1E 1g 1b
=21	=21	=21	=21	=21	=21
*>C_chorus	*>C_chorus	*>C_chorus	*>C_chorus	*>C_chorus	*>C_chorus
2V	A:maj	39.232	newline	voice	2A 2cc# 2ee
2I	D:maj	40.201	.	voice	2D 2f# 2a
=22	=22	=22	=22	=22	=22
1ii	E:min	41.171	.	voice	1E 1g 1b
=23	=23	=23	=23	=23	=23
1V7	A:7	43.111	.	voice	1A 1cc# 1ee 1gg
=24	=24	=24	=24	=24	=24
1I	D:maj	45.05	.	voice	1D 1f# 1a
=25	=25	=25	=25	=25	=25
2V	A:maj	46.99	newline	voice	2A 2cc# 2ee
2I	D:maj	47.936	.	voice	2D 2f# 2a
=26	=26	=26	=26	=26	=26
1ii	E:min	48.882	.	voice	1E 1g 1b
=27	=27	=27	=27	=27	=27
1V	A:maj	50.775	.	voice	1A 1cc# 1ee
=28	=28	=28	=28	=28	=28
1V+	A:aug	52.667	.	voice	1A 1cc# 1ee#
=29	=29	=29	=29	=29	=29
*>B_verse	*>B_verse	*>B_verse	*>B_verse	*>B_verse	*>B_verse
1I	D:maj	54.56	newline	voice	1D 1f# 1a
=30	=30	=30	=30	=30	=30
1I	D:maj	56.452	.	voice	1D 1f# 1a
=31	=31	=31	=31	=31	=31
1ii	E:min	58.343	.	voice	1E 1g 1b
=32	=32	=32	=32	=32	=32
2iioD7	E:dim7	60.235	.	voice	2E 2g 2b- 2dd-
2ivoD7	G:dim7	61.181	.	voice	2G 2b- 2dd- 2ff-
=33	=33	=33	=33	=33	=33
2I	D:maj	62.127	newline	voice	2D 2f# 2a
2iii	F#:min	63.084	.	voice	2F# 2a 2cc#
=34	=34	=34	=34	=34	=34
2ii	E:min	64.04	.	voice	2E 2g 2b
2iv	G:min	64.997	.	voice	2G 2b- 2dd
=35	=35	=35	=35	=35	=35
2I	D:maj	65.954	.	voice	2D 2f# 2a
2VI	B:maj	66.911	.	voice	2B 2dd# 2ff#
=36	=36	=36	=36	=36	=36
1ii	E:min	67.867	.	voice	1E 1g 1b
=37	=37	=37	=37	=37	=37
2I	D:maj	69.781	newline	voice	2D 2f# 2a
2iii	F#:min	70.734	.	voice	2F# 2a 2cc#
=38	=38	=38	=38	=38	=38
2ii	E:min	71.687	.	voice	2E 2g 2b
2iv	G:min	72.64	.	voice	2G 2b- 2dd
=39	=39	=39	=39	=39	=39
2I	D:maj	73.593	.	voice	2D 2f# 2a
2VI	B:maj	74.546	.	voice	2B 2dd# 2ff#
=40	=40	=40	=40	=40	=40
1ii	E:min	75.499	.	voice	1E 1g 1b
=41	=41	=41	=41	=41	=41
*>A_trans	*>A_trans	*>A_trans	*>A_trans	*>A_trans	*>A_trans
1I	D:maj	77.405	newline	guitar	1D 1f# 1a
=42	=42	=42	=42	=42	=42
1I	D:maj	79.294	.	guitar	1D 1f# 1a
=43	=43	=43	=43	=43	=43
1I	D:maj	81.183	.	guitar	1D 1f# 1a
=44	=44	=44	=44	=44	=44
1I	D:maj	83.073	.	guitar	1D 1f# 1a
=45	=45	=45	=45	=45	=45
*>B_solo	*>B_solo	*>B_solo	*>B_solo	*>B_solo	*>B_solo
1I	D:maj	84.962	newline	guitar	1D 1f# 1a
=46	=46	=46	=46	=46	=46
1I	D:maj	86.855	.	guitar	1D 1f# 1a
=47	=47	=47	=47	=47	=47
1ii	E:min	88.748	.	guitar	1E 1g 1b
=48	=48	=48	=48	=48	=48
2iioD7	E:dim7	90.641	.	guitar	2E 2g 2b- 2dd-
2ivoD7	G:dim7	91.588	.	guitar	2G 2b- 2dd- 2ff-
=49	=49	=49	=49	=49	=49
2I	D:maj	92.534	newline	guitar	2D 2f# 2a
2iii	F#:min	93.489	.	guitar	2F# 2a 2cc#
=50	=50	=50	=50	=50	=50
2ii	E:min	94.443	.	guitar	2E 2g 2b
2iv	G:min	95.397	.	guitar	2G 2b- 2dd
=51	=51	=51	=51	=51	=51
2I	D:maj	96.352	.	guitar	2D 2f# 2a
2VI	B:maj	97.306	.	guitar	2B 2dd# 2ff#
=52	=52	=52	=52	=52	=52
1ii	E:min	98.261	.	guitar	1E 1g 1b
=53	=53	=53	=53	=53	=53
1I	D:maj	100.169	newline	guitar	1D 1f# 1a
=54	=54	=54	=54	=54	=54
1I	D:maj	102.074	.	guitar	1D 1f# 1a
=55	=55	=55	=55	=55	=55
1ii	E:min	103.978	.	guitar	1E 1g 1b
=56	=56	=56	=56	=56	=56
2iioD7	E:dim7	105.882	.	guitar	2E 2g 2b- 2dd-
2ivoD7	G:dim7	106.834	.	guitar	2G 2b- 2dd- 2ff-
=57	=57	=57	=57	=57	=57
2I	D:maj	107.787	newline	guitar	2D 2f# 2a
2iii	F#:min	108.745	.	guitar	2F# 2a 2cc#
=58	=58	=58	=58	=58	=58
2ii	E:min	109.703	.	guitar	2E 2g 2b
2iv	G:min	110.661	.	guitar	2G 2b- 2dd
=59	=59	=59	=59	=59	=59
2I	D:maj	111.619	.	guitar	2D 2f# 2a
2VI	B:maj	112.577	.	guitar	2B 2dd# 2ff#
=60	=60	=60	=60	=60	=60
1ii	E:min	113.535	.	guitar	1E 1g 1b
=61	=61	=61	=61	=61	=61
*>C_chorus	*>C_chorus	*>C_chorus	*>C_chorus	*>C_chorus	*>C_chorus
2V	A:maj	115.451	newline	voice	2A 2cc# 2ee
2I	D:maj	116.411	.	voice	2D 2f# 2a
=62	=62	=62	=62	=62	=62
1ii	E:min	117.37	.	voice	1E 1g 1b
=63	=63	=63	=63	=63	=63
1V	A:maj	119.289	.	voice	1A 1cc# 1ee
=64	=64	=64	=64	=64	=64
1I	D:maj	121.207	.	voice	1D 1f# 1a
=65	=65	=65	=65	=65	=65
2V	A:maj	123.126	newline	voice	2A 2cc# 2ee
2I	D:maj	124.072	.	voice	2D 2f# 2a
=66	=66	=66	=66	=66	=66
1ii	E:min	125.018	.	voice	1E 1g 1b
=67	=67	=67	=67	=67	=67
1V	A:maj	126.91	.	voice	1A 1cc# 1ee
=68	=68	=68	=68	=68	=68
1V+	A:aug	128.801	.	voice	1A 1cc# 1ee#
=69	=69	=69	=69	=69	=69
*>B_verse	*>B_verse	*>B_verse	*>B_verse	*>B_verse	*>B_verse
1I	D:maj	130.693	newline	voice	1D 1f# 1a
=70	=70	=70	=70	=70	=70
1I	D:maj	132.589	.	voice	1D 1f# 1a
=71	=71	=71	=71	=71	=71
1ii	E:min	134.484	.	voice	1E 1g 1b
=72	=72	=72	=72	=72	=72
2iio	E:dim	136.38	.	voice	2E 2g 2b-
2ivo	G:dim	137.328	.	voice	2G 2b- 2dd-
=73	=73	=73	=73	=73	=73
2I	D:maj	138.276	newline	voice	2D 2f# 2a
2iii	F#:min	139.232	.	voice	2F# 2a 2cc#
=74	=74	=74	=74	=74	=74
2ii	E:min	140.188	.	voice	2E 2g 2b
2iv	G:min	141.144	.	voice	2G 2b- 2dd
=75	=75	=75	=75	=75	=75
2I	D:maj	142.101	.	voice	2D 2f# 2a
2VI	B:maj	143.057	.	voice	2B 2dd# 2ff#
=76	=76	=76	=76	=76	=76
1ii	E:min	144.013	.	voice	1E 1g 1b
=77	=77	=77	=77	=77	=77
2I	D:maj	145.925	newline	voice	2D 2f# 2a
2iii	F#:min	146.887	.	voice	2F# 2a 2cc#
=78	=78	=78	=78	=78	=78
2ii	E:min	147.848	.	voice	2E 2g 2b
2iv	G:min	148.809	.	voice	2G 2b- 2dd
=79	=79	=79	=79	=79	=79
2I	D:maj	149.771	.	voice	2D 2f# 2a
2VI	B:maj	150.732	.	voice	2B 2dd# 2ff#
=80	=80	=80	=80	=80	=80
1ii	E:min	151.693	.	voice	1E 1g 1b
=81	=81	=81	=81	=81	=81
2I	D:maj	153.616	newline	voice	2D 2f# 2a
2iii	F#:min	154.581	.	voice	2F# 2a 2cc#
=82	=82	=82	=82	=82	=82
2ii	E:min	155.546	.	voice	2E 2g 2b
2iv	G:min	156.511	.	voice	2G 2b- 2dd
=83	=83	=83	=83	=83	=83
2I	D:maj	157.476	.	voice	2D 2f# 2a
2VI	B:maj	158.441	.	voice	2B 2dd# 2ff#
=84	=84	=84	=84	=84	=84
1ii	E:min	159.406	.	voice	1E 1g 1b
=85	=85	=85	=85	=85	=85
1V	A:maj	161.336	.	voice	1A 1cc# 1ee
=86	=86	=86	=86	=86	=86
*>B_instrumental	*>B_instrumental	*>B_instrumental	*>B_instrumental	*>B_instrumental	*>B_instrumental
1I	D:maj	163.266	newline	synthesizer	1D 1f# 1a
=87	=87	=87	=87	=87	=87
1I	D:maj	165.178	.	synthesizer	1D 1f# 1a
=88	=88	=88	=88	=88	=88
1ii	E:min	167.09	.	synthesizer	1E 1g 1b
=89	=89	=89	=89	=89	=89
2iioD7	E:dim7	169.003	.	synthesizer	2E 2g 2b- 2dd-
2ivoD7	G:dim7	169.959	.	synthesizer	2G 2b- 2dd- 2ff-
=90	=90	=90	=90	=90	=90
2I	D:maj	170.915	newline	synthesizer	2D 2f# 2a
2iii	F#:min	171.856	.	synthesizer	2F# 2a 2cc#
=91	=91	=91	=91	=91	=91
2ii	E:min	172.797	.	synthesizer	2E 2g 2b
2iv	G:min	173.738	.	synthesizer	2G 2b- 2dd
=92	=92	=92	=92	=92	=92
2I	D:maj	174.68	.	synthesizer	2D 2f# 2a
2VI	B:maj	175.621	.	synthesizer	2B 2dd# 2ff#
=93	=93	=93	=93	=93	=93
1ii	E:min	176.562	.	synthesizer	1E 1g 1b
=94	=94	=94	=94	=94	=94
1I	D:maj	178.444	newline	synthesizer	1D 1f# 1a
=95	=95	=95	=95	=95	=95
1I	D:maj	180.345	.	synthesizer	1D 1f# 1a
=96	=96	=96	=96	=96	=96
1ii	E:min	182.246	.	synthesizer	1E 1g 1b
=97	=97	=97	=97	=97	=97
2iioD7	E:dim7	184.147	.	synthesizer	2E 2g 2b- 2dd-
2ivoD7	G:dim7	185.097	.	synthesizer	2G 2b- 2dd- 2ff-
=98	=98	=98	=98	=98	=98
2I	D:maj	186.048	newline	synthesizer	2D 2f# 2a
2iii	F#:min	187.016	.	synthesizer	2F# 2a 2cc#
=99	=99	=99	=99	=99	=99
2ii	E:min	187.984	.	synthesizer	2E 2g 2b
2iv	G:min	188.952	.	synthesizer	2G 2b- 2dd
=100	=100	=100	=100	=100	=100
2I	D:maj	189.919	.	synthesizer	2D 2f# 2a
2VI	B:maj	190.887	.	synthesizer	2B 2dd# 2ff#
=101	=101	=101	=101	=101	=101
1ii	E:min	191.855	.	synthesizer	1E 1g 1b
=102	=102	=102	=102	=102	=102
*>B_fadeout	*>B_fadeout	*>B_fadeout	*>B_fadeout	*>B_fadeout	*>B_fadeout
1I	D:maj	193.791	newline	synthesizer	1D 1f# 1a
=103	=103	=103	=103	=103	=103
1I	D:maj	195.691	.	synthesizer	1D 1f# 1a
=104	=104	=104	=104	=104	=104
1ii	E:min	197.59	.	synthesizer	1E 1g 1b
=105	=105	=105	=105	=105	=105
2iioD7	E:dim7	199.489	.	synthesizer	2E 2g 2b- 2dd-
2ivoD7	G:dim7	200.439	.	synthesizer	2G 2b- 2dd- 2ff-
=106	=106	=106	=106	=106	=106
2I	D:maj	201.389	newline	synthesizer	2D 2f# 2a
2iii	F#:min	202.347	.	synthesizer	2F# 2a 2cc#
=107	=107	=107	=107	=107	=107
2ii	E:min	203.306	.	synthesizer	2E 2g 2b
2iv	G:min	204.265	.	synthesizer	2G 2b- 2dd
=108	=108	=108	=108	=108	=108
2I	D:maj	205.224	.	synthesizer	2D 2f# 2a
2VI	B:maj	206.182	.	synthesizer	2B 2dd# 2ff#
=109	=109	=109	=109	=109	=109
1ii	E:min	207.141	.	synthesizer	1E 1g 1b
=110	=110	=110	=110	=110	=110
1I	D:maj	209.059	newline	synthesizer	1D 1f# 1a
=111	=111	=111	=111	=111	=111
1I	D:maj	210.943	.	synthesizer	1D 1f# 1a
=112	=112	=112	=112	=112	=112
1ii	E:min	212.827	.	synthesizer	1E 1g 1b
=113	=113	=113	=113	=113	=113
2iioD7	E:dim7	214.71	.	synthesizer	2E 2g 2b- 2dd-
2ivoD7	G:dim7	215.652	.	synthesizer	2G 2b- 2dd- 2ff-
=114	=114	=114	=114	=114	=114
2I	D:maj	216.594	newline	synthesizer	2D 2f# 2a
2iii	F#:min	217.367	.	synthesizer	2F# 2a 2cc#
=115	=115	=115	=115	=115	=115
2ii	E:min	218.139	.	synthesizer	2E 2g 2b
2iv	G:min	218.911	.	synthesizer	2G 2b- 2dd
=116	=116	=116	=116	=116	=116
2I	D:maj	219.683	.	synthesizer	2D 2f# 2a
2VI	B:maj	220.456	.	synthesizer	2B 2dd# 2ff#
=117	=117	=117	=117	=117	=117
1ii	E:min	221.228	.	synthesizer	1E 1g 1b
1r;	N	222.772	.	r	1r;
1r;	N	227.37	.	r	1r;
*-	*-	*-	*-	*-	*-
!!!OTL: All Those Years Ago
!!!COC: George Harrison
!!!BillboardChartDate: 1981/05/30, 1981/08/15
!!!BillboardPeak: 2, 2
!!!BillboardWeeksOnChart: 16, 16
!!!SampleTargetRank: 16, 51
!!!SampleActualRank: 16, 51
!!!SampleID#: 517, 680
!!!RDF**harmony: **recip + pitch class of root + harmonic quality
!!!RDF**harte: Chris Harte's syntax, used by MIREX
!!!RDF**phrase: newline = linebreak in original McGill transcription
!!!RDF**timestamp: McGill audio timestamp in seconds
!!!RDF**leadinstrument: original McGill primary instrumentation annotation
!!!RDT: 2017/01/12/
!!!ENC: Nathaniel Condit-Schultz
!!!EST: Awating manual error checking and editing.
